X:138
T:Any Thing
M:6/8
L:1/8
B:Thompson's Compleat Collection of 200 Favourite Country Dances, vol. 1 (London, 1757)
Z:Transcribed and edited by Flynn Titford-Mock, 2007
Z:abc's:AK/Fiddler's Companion
K:F
A2F c2F|A2F cBA|B2G d2G|B2G dcB|A2F c2F|A2F f2g|agf cfe|f3 F3:|
|:fga agf|efg gfe|def fed|edc cBA|Bcd dcB|ABc f2B|AGF CFE|F3 f3:|

